icon/pk/pay-code-two.svg

<svg viewBox="0 0 48 48" fill="none" xmlns="http://www.w3.org/2000/svg" height="1em" width="1em">
  <path d="M16 6H8C6.89543 6 6 6.89543 6 8V16" stroke="black" stroke-width="4" stroke-linecap="round" stroke-linejoin="round"/>
  <path d="M16 42H8C6.89543 42 6 41.1046 6 40V32" stroke="black" stroke-width="4" stroke-linecap="round" stroke-linejoin="round"/>
  <path d="M32 42H40C41.1046 42 42 41.1046 42 40V32" stroke="black" stroke-width="4" stroke-linecap="round" stroke-linejoin="round"/>
  <path d="M32 6H40C41.1046 6 42 6.89543 42 8V16" stroke="black" stroke-width="4" stroke-linecap="round" stroke-linejoin="round"/>
  <path d="M24 16V32" stroke="black" stroke-width="4" stroke-linecap="round" stroke-linejoin="round"/>
  <path d="M32 16V32" stroke="black" stroke-width="4" stroke-linecap="round" stroke-linejoin="round"/>
  <path d="M16 16V32" stroke="black" stroke-width="4" stroke-linecap="round" stroke-linejoin="round"/>
</svg>

<svg width="48" height="48" fill="none" xmlns="http://www.w3.org/2000/svg"><path d="M16 6H8a2 2 0 0 0-2 2v8M16 42H8a2 2 0 0 1-2-2v-8M32 42h8a2 2 0 0 0 2-2v-8M32 6h8a2 2 0 0 1 2 2v8M24 16v16M32 16v16M16 16v16" stroke="#000" stroke-width="4" stroke-linecap="round" stroke-linejoin="round"/></svg>
